assets/symbols/mulberry/silence.svg

<svg height="850.394" viewBox="0 0 850.394 850.394" width="850.394" xmlns="http://www.w3.org/2000/svg"><g fill="#c8c8c8"><path d="m381.76 480.21v195.95l-110.54-79.56z"/><path d="m381.76 449.73v30.48l-110.54 116.39-62.45-44.95h-113.49v-197.77h113.49l172.99-124.52z"/></g><g fill="none"><g stroke="#231f20"><path d="m381.76 480.21v195.95l-110.54-79.56-62.45-44.95h-113.49v-197.77h113.49l172.99-124.52v220.37z" stroke-width="28"/><path d="m496.11 323.14c6.279 5.5 12.149 11.58 17.569 18.16 24.44 29.74 39.42 69.78 39.42 113.82 0 54.41-22.85 102.7-58.17 133.03m132.941-368.23c.2.17.399.35.59.52 61.3 54.09 100.79 138.92 100.79 234.28 0 96.79-40.65 182.681-103.49 236.641" stroke-width="42"/><path d="m121.08 754.69 150.14-158.09 110.54-116.39 131.92-138.91 114.78-120.86 129.76-136.63" stroke-width="21"/></g><path d="m0 0h850.394v850.394h-850.394z"/></g></svg>

<svg xmlns="http://www.w3.org/2000/svg" width="850.394" height="850.394" viewBox="0 0 850.394 850.394" overflow="visible"><g fill="#c8c8c8"><path d="M381.76 480.21v195.95L271.22 596.6z"/><path d="M381.76 449.73v30.48L271.22 596.6l-62.45-44.95H95.28V353.88h113.49l172.99-124.52z"/></g><g fill="none" stroke="#231f20"><path stroke-width="28" d="M381.76 480.21v195.95L271.22 596.6l-62.45-44.95H95.28V353.88h113.49l172.99-124.52v220.37z"/><path d="M496.11 323.14c6.279 5.5 12.149 11.58 17.569 18.16 24.44 29.74 39.42 69.78 39.42 113.82 0 54.41-22.85 102.7-58.17 133.03M627.87 219.92c.2.17.399.35.59.52 61.3 54.09 100.79 138.92 100.79 234.28 0 96.79-40.65 182.681-103.49 236.641" stroke-width="42"/><path stroke-width="21" d="M121.08 754.69L271.22 596.6l110.54-116.39L513.68 341.3l114.78-120.86L758.22 83.81"/></g><path fill="none" d="M0 0h850.394v850.394H0z"/></svg>
